X:1
T:Title
%%score { 1 | ( 2 3 ) }
L:1/8
Q:1/4=105
M:6/8
K:Bb
V:1 treble nm="Grand Piano"
V:2 bass 
V:3 bass 
V:1
 [DF]2 [DF] [DF]2 [DF] | [Fd]3 [DB]3 | [Ec]2 [Ec] [EG]2 [EA] | [DB]6 | [DF]2 [DF] [DF]2 [DF] | %5
 [Fd]3 [DB]3 | [Ec]2 [Ec] [EG]2 [EA] | [DB]6 | [Ac]2 [Ac] [Ac]2 [Bd] | [ce]3 [Ac]3 | %10
 [Bd]2 [Bd] [Ac]2 [GB] | [Ac]6 | [Bd]2 [Bd] [Bd][Ac][GB] | G3 [FB]3 | [Ec]2 [Ec] [DB]2 [CA] | %15
 [DB]3 d3 | [Fd]2 [Bd] [Bd][Ac][GB] | G3 [FB]3 | [Ec]2 [Ec] [DB]2 [CA] | [DB]6 |] %20
V:2
 B,,2 B,, B,,2 B,, | B,,3 B,,3 | E,2 E, F,2 F, | B,,6 | B,,2 B,, B,,2 B,, | B,,3 B,,3 | %6
 E,2 E, F,2 F, | B,,6 | F,2 F, F,2 F, | F,3 F,3 | F,2 F, F,2 F, | F,6 | B,2 B, B,,C,D, | E,3 D,3 | %14
 C,2 C, F,2 F, | z3[K:treble] F3 | B,2[K:bass] B, B,,C,D, | E,3 D,3 | C,2 E, F,2 F, | B,,6 |] %20
V:3
 x6 | x6 | x6 | x6 | x6 | x6 | x6 | x6 | x6 | x6 | x6 | x6 | x6 | x6 | x6 | B,,6[K:treble] | %16
 x2[K:bass] x4 | x6 | x6 | x6 |] %20

